public/images/icons/dots-horizontal.svg

<svg xmlns="http://www.w3.org/2000/svg" fill="currentColor" viewBox="0 0 24 24"><path d="M16 12a2 2 0 0 1 2-2 2 2 0 0 1 2 2 2 2 0 0 1-2 2 2 2 0 0 1-2-2m-6 0a2 2 0 0 1 2-2 2 2 0 0 1 2 2 2 2 0 0 1-2 2 2 2 0 0 1-2-2m-6 0a2 2 0 0 1 2-2 2 2 0 0 1 2 2 2 2 0 0 1-2 2 2 2 0 0 1-2-2Z"/></svg>

<svg xmlns="http://www.w3.org/2000/svg" viewBox="0 0 24 24" fill="currentColor"><path d="M16,12A2,2 0 0,1 18,10A2,2 0 0,1 20,12A2,2 0 0,1 18,14A2,2 0 0,1 16,12M10,12A2,2 0 0,1 12,10A2,2 0 0,1 14,12A2,2 0 0,1 12,14A2,2 0 0,1 10,12M4,12A2,2 0 0,1 6,10A2,2 0 0,1 8,12A2,2 0 0,1 6,14A2,2 0 0,1 4,12Z" /></svg>
